X:578
T: "Zum Sterben verliebt"
N: Z1258
O: Europa, Mitteleuropa, Deutschland, Franken
R: Liebes - Lied; Tanz
M: 3/8
L: 1/16
K: F
c2 | f2c2A2 | F4
Ac | B2B2Ac | G4
FG | A2A2c2 | B2G2
FG | A2A2c2 | B2G2
c2 | f2cBAG | F4

@@@ Tune index: 10336
